Papirus/22x22/panel/dropboxstatus-busy.svg

<?xml version="1.0" encoding="UTF-8" standalone="no"?>
<svg id="svg6530" xmlns:rdf="http://www.w3.org/1999/02/22-rdf-syntax-ns#" xmlns="http://www.w3.org/2000/svg" height="22" width="22" version="1.1" xmlns:cc="http://creativecommons.org/ns#" viewBox="0 0 22 22" xmlns:dc="http://purl.org/dc/elements/1.1/">
 <metadata id="metadata6535">
  <rdf:RDF>
   <cc:Work rdf:about="">
    <dc:format>image/svg+xml</dc:format>
    <dc:type rdf:resource="http://purl.org/dc/dcmitype/StillImage"/>
    <dc:title/>
   </cc:Work>
  </rdf:RDF>
 </metadata>
 <path id="path5203" style="color:#ffffff" fill="#fff" d="m7 3-5 3 4 2.9844-4.0098 3.0076 5.0098 3.008 4-3-5-3 5-3 5 3.0156-5 2.9844 1.777 1.334c0.915-1.451 2.508-2.332 4.223-2.334 1.0745 0.003 2.1196 0.35112 2.9805 0.99414l0.03-0.017-4.01-2.977 4-3-5-3-4 2.9844-4-2.9844zm10 9c-2.2091 0-4 1.7909-4 4s1.7909 4 4 4 4-1.7909 4-4-1.7909-4-4-4zm-6 1-4 3-1-0.6v0.6l5 3 1.4766-0.88477c-0.31166-0.66173-0.47434-1.3838-0.47656-2.1152-0.00024-0.67105 0.1346-1.3353 0.39648-1.9531l-1.4-1.05zm6 0a3 3 0 0 1 3 3h-1a2 2 0 0 0 -2 -2v-1zm-3 3h1a2 2 0 0 0 2 2v1a3 3 0 0 1 -3 -3z"/>
</svg>

<?xml version="1.0" encoding="UTF-8" standalone="no"?>
<svg xmlns:dc="http://purl.org/dc/elements/1.1/" xmlns:cc="http://creativecommons.org/ns#" xmlns:rdf="http://www.w3.org/1999/02/22-rdf-syntax-ns#" xmlns:svg="http://www.w3.org/2000/svg" xmlns="http://www.w3.org/2000/svg" version="1.1" width="22" viewBox="0 0 22 22" height="22" id="svg6530">
    <metadata id="metadata6535">
        <rdf:RDF>
            <cc:Work rdf:about="">
                <dc:format>
                    image/svg+xml
                </dc:format>
                <dc:type rdf:resource="http://purl.org/dc/dcmitype/StillImage"/>
                <dc:title/>
            </cc:Work>
        </rdf:RDF>
    </metadata>
    <path id="path5203" style="color:#ffffff;fill:#ffffff;opacity:1" d="M 7,3 2,6 6,8.9844 1.9902,11.9922 7,15 11,12 6,9 11,6 16,9.0156 11,12 12.7773,13.334 C 13.69155,11.8834 15.2853,11.0025 17,11 c 1.0745,0.003 2.1196,0.35112 2.9805,0.99414 L 20.0098,11.97654 16,9.00004 l 4,-3 -5,-3 -4,2.9844 -4,-2.9844 z m 10,9 c -2.2091,0 -4,1.7909 -4,4 0,2.2091 1.7909,4 4,4 2.2091,0 4,-1.7909 4,-4 0,-2.2091 -1.7909,-4 -4,-4 z M 11,13 7,16 6,15.40039 6,16 l 5,3 1.4766,-0.88477 c -0.31166,-0.66173 -0.47434,-1.3838 -0.47656,-2.1152 -2.4e-4,-0.67105 0.1346,-1.3353 0.39648,-1.9531 l -1.4,-1.05 z m 6,0 a 3,3 0 0 1 3,3 l -1,0 a 2,2 0 0 0 -2,-2 l 0,-1 z m -3,3 1,0 a 2,2 0 0 0 2,2 l 0,1 a 3,3 0 0 1 -3,-3 z"/>
</svg>
